X: 1500
T: the Linen Cap   #2
%T: an caipin anairt.
R: reel
%S: s:2 b:14(7+7)
O: Cronin
B: O'Neill's "Music of Ireland" 1850 #1500
Z: John B. Walsh, walsh@math.ubc.ca 8/22/96
Z: Compacted via repeats and multiple endings [JC]
M: C|
L: 1/8
K: A
   g | a2(ed) cdec | Bcde [1 fBBg | a2(ed) cdec | dfed cA A :|[2 fefg | agae faec | dfed cA A |]
|: B | cAEA   cdec | Bcde [1 fBBB | cAEA   cdec | dfed cA A :|[2 fefg | agae faec | dfed cA A |]
